!!!COM: Blanc, Giuseppe
!!!CDT: 1886-1969
!!!OTL: National Anthem, Somalia
!!!ENC: Davis, Matthew J.
!!No Words, Melodic Line Only
**kern
*clefG2
*k[b-e-a-d-]
*A-:
*M2/4
=1-
4c
8.c
16c
=2
[4e-
8e-]
8e-
=3
8f
8d-
8g
8e-
=4
2a-
==5
8.cc
16cc
8b-
16cc
=6
[4dd-
8dd-]
16cc
16b-
=7
8cc
8a-
8a-
8b-
=8
2b-
=9
4f
8.f
16f
=10
[4b-
8b-]
8cc
=11
8.dd-
16cc
8.b-
16an
=12
2b-
=13
8b-
16b-
16b-
8a-
8b-
=14
4cc
8.ff
16ff
=15
8ee-
16a-
16dd-
8cc
8b-
=16
[4a-
8a-]
8r
=17
8b-
16b-
16b-
8a-
8b-
=18
4cc
8.ff
16ff
=19
8ee-
16a-
8dd-
8cc
8b-
=20
[4a-
8a-]
8r
==|!
*-
